app/assets/images/heroicons/micro/fire.svg

<svg width="16" height="16" viewBox="0 0 16 16" fill="none" xmlns="http://www.w3.org/2000/svg">
<path fill-rule="evenodd" clip-rule="evenodd" d="M8.07402 0.944846C6.81757 1.85307 6 3.33094 6 4.99976L6.0001 5.0321C6.00387 5.6327 6.11354 6.20818 6.31136 6.74081C6.4705 7.16926 6.10663 7.65174 5.70092 7.44129C4.94479 7.04907 4.30153 6.46942 3.83266 5.76387C3.63093 5.4603 3.18469 5.40126 2.98487 5.7061C2.92216 5.80176 2.86179 5.89977 2.80387 6.00007C1.14702 8.86983 2.13027 12.5394 5.00003 14.1962C7.86978 15.8531 11.5393 14.8698 13.1962 12.0001C14.8527 9.13095 13.8702 5.46237 11.0019 3.805L10.9981 3.79848C9.9539 3.195 9.20965 2.27165 8.81771 1.22373C8.70214 0.914737 8.34139 0.751584 8.07402 0.944846ZM8.8536 7.12299C10.0946 7.49066 11 8.6395 11 9.99981C11 10.9622 10.5468 11.8188 9.84219 12.3678C9.3338 12.7638 8.69401 12.9997 7.99968 12.9997C6.87478 12.9997 5.89449 12.3805 5.38097 11.4645C5.17594 11.0987 5.59569 10.7699 6.00184 10.8742C6.32081 10.9561 6.65515 10.9997 6.99968 10.9997C7.30017 10.9997 7.59292 10.9665 7.87449 10.9037C8.16227 10.8395 8.28666 10.5182 8.19544 10.2378C8.06858 9.84786 8 9.43158 8 8.99929C8 8.41427 8.12559 7.85859 8.35128 7.35773C8.43815 7.16493 8.65084 7.06292 8.8536 7.12299Z" fill="black"/>
</svg>

<svg xmlns="http://www.w3.org/2000/svg" viewBox="0 0 16 16" fill="currentColor" aria-hidden="true" data-slot="icon">
  <path fill-rule="evenodd" d="M8.074.945A4.993 4.993 0 0 0 6 5v.032c.004.6.114 1.176.311 1.709.16.428-.204.91-.61.7a5.023 5.023 0 0 1-1.868-1.677c-.202-.304-.648-.363-.848-.058a6 6 0 1 0 8.017-1.901l-.004-.007a4.98 4.98 0 0 1-2.18-2.574c-.116-.31-.477-.472-.744-.28Zm.78 6.178a3.001 3.001 0 1 1-3.473 4.341c-.205-.365.215-.694.62-.59a4.008 4.008 0 0 0 1.873.03c.288-.065.413-.386.321-.666A3.997 3.997 0 0 1 8 8.999c0-.585.126-1.14.351-1.641a.42.42 0 0 1 .503-.235Z" clip-rule="evenodd"/>
</svg>
